images/grammar_programmer.svg

<svg fill="none" height="278" viewBox="0 0 244 278" width="244" xmlns="http://www.w3.org/2000/svg" xmlns:xlink="http://www.w3.org/1999/xlink"><filter id="a" color-interpolation-filters="sRGB" filterUnits="userSpaceOnUse" height="113.872" width="37.368" x="104.536" y="95.376"><feFlood flood-opacity="0" result="BackgroundImageFix"/><feColorMatrix in="SourceAlpha" type="matrix" values="0 0 0 0 0 0 0 0 0 0 0 0 0 0 0 0 0 0 127 0"/><feOffset dx="1.8" dy="4"/><feColorMatrix type="matrix" values="0 0 0 0 0 0 0 0 0 0 0 0 0 0 0 0 0 0 0.25 0"/><feBlend in2="BackgroundImageFix" mode="normal" result="effect1_dropShadow"/><feBlend in="SourceGraphic" in2="effect1_dropShadow" mode="normal" result="shape"/></filter><clipPath id="b"><path d="m0 0h244v278h-244z"/></clipPath><mask id="c" height="203" maskUnits="userSpaceOnUse" width="176" x="34" y="38"><path d="m122.26 38 87.694 50.63v101.26l-87.694 50.63-87.6937-50.63v-101.26z" fill="#e5e5e5"/><path d="m35.5663 89.2073 86.6937-50.0526 86.694 50.0526v100.1057l-86.694 50.052-86.6937-50.052z" fill="none" stroke="#000" stroke-opacity=".38" stroke-width="2"/></mask><mask id="d" height="245" maskUnits="userSpaceOnUse" width="212" x="16" y="17"><path d="m122.031 17.0312 105.655 61v121.9998l-105.655 61-105.6549-61v-121.9998z" fill="#000"/></mask><g clip-path="url(#b)"><path d="m122 17 105.655 61v122l-105.655 61-105.6551-61v-122z" fill="#000" fill-opacity=".38"/><path d="m122 17 105.655 61v122l-105.655 61-105.6551-61v-122z" fill="#283035"/><g mask="url(#c)"><g mask="url(#d)"><path d="m.03125.03125h244v278h-244z" fill="#c4c4c4"/></g></g><path d="m36.0314 89.366 85.9686-49.6339 85.969 49.6339v99.268l-85.969 49.634-85.9686-49.634z" stroke="#000" stroke-opacity=".13" stroke-width="3"/><g filter="url(#a)"><path d="m104.824 112.368c0-2.4.384-4.608 1.152-6.624.864-2.112 2.016-3.936 3.456-5.472s3.168-2.736 5.184-3.6c2.112-.864 4.416-1.296 6.912-1.296s4.752.432 6.768 1.296c2.112.864 3.888 2.064 5.328 3.6s2.544 3.36 3.312 5.472c.864 2.016 1.296 4.224 1.296 6.624 0 4.8-1.536 8.832-4.608 12.096-3.072 3.168-7.104 4.752-12.096 4.752s-9.024-1.584-12.096-4.752c-3.072-3.264-4.608-7.296-4.608-12.096zm-.288 80.496c12.48-4.32 18.72-11.136 18.72-20.448-.384.096-.912.144-1.584.144-2.016 0-3.984-.288-5.904-.864-1.824-.672-3.456-1.632-4.896-2.88s-2.592-2.784-3.456-4.608-1.296-3.936-1.296-6.336c0-4.512 1.536-8.112 4.608-10.8 3.168-2.688 7.008-4.032 11.52-4.032 5.952 0 10.416 2.208 13.392 6.624 2.976 4.32 4.464 10.368 4.464 18.144 0 9.216-2.544 16.992-7.632 23.328s-12.624 11.04-22.608 14.112z" fill="#283035"/></g></g></svg>

<svg width="244" height="278" viewBox="0 0 244 278" fill="none" xmlns="http://www.w3.org/2000/svg">
<g clip-path="url(#clip0)">
<path d="M122 17L227.655 78V200L122 261L16.3449 200V78L122 17Z" fill="black" fill-opacity="0.38"/>
<path d="M122 17L227.655 78V200L122 261L16.3449 200V78L122 17Z" fill="#283035"/>
<mask id="mask0" mask-type="alpha" maskUnits="userSpaceOnUse" x="34" y="38" width="176" height="203">
<path d="M122.26 38L209.954 88.63V189.89L122.26 240.52L34.5663 189.89V88.63L122.26 38Z" fill="#E5E5E5"/>
<path d="M35.5663 89.2073L122.26 39.1547L208.954 89.2073V189.313L122.26 239.365L35.5663 189.313V89.2073Z" stroke="black" stroke-opacity="0.38" stroke-width="2"/>
</mask>
<g mask="url(#mask0)">
<mask id="mask1" mask-type="alpha" maskUnits="userSpaceOnUse" x="16" y="17" width="212" height="245">
<path d="M122.031 17.0312L227.686 78.0312V200.031L122.031 261.031L16.3761 200.031V78.0312L122.031 17.0312Z" fill="black"/>
</mask>
<g mask="url(#mask1)">
<rect x="0.03125" y="0.03125" width="244" height="278" fill="#C4C4C4"/>
</g>
</g>
<path d="M36.0314 89.366L122 39.7321L207.969 89.366V188.634L122 238.268L36.0314 188.634V89.366Z" stroke="black" stroke-opacity="0.13" stroke-width="3"/>
<g filter="url(#filter0_d)">
<path d="M104.824 112.368C104.824 109.968 105.208 107.76 105.976 105.744C106.84 103.632 107.992 101.808 109.432 100.272C110.872 98.736 112.6 97.536 114.616 96.672C116.728 95.808 119.032 95.376 121.528 95.376C124.024 95.376 126.28 95.808 128.296 96.672C130.408 97.536 132.184 98.736 133.624 100.272C135.064 101.808 136.168 103.632 136.936 105.744C137.8 107.76 138.232 109.968 138.232 112.368C138.232 117.168 136.696 121.2 133.624 124.464C130.552 127.632 126.52 129.216 121.528 129.216C116.536 129.216 112.504 127.632 109.432 124.464C106.36 121.2 104.824 117.168 104.824 112.368ZM104.536 192.864C117.016 188.544 123.256 181.728 123.256 172.416C122.872 172.512 122.344 172.56 121.672 172.56C119.656 172.56 117.688 172.272 115.768 171.696C113.944 171.024 112.312 170.064 110.872 168.816C109.432 167.568 108.28 166.032 107.416 164.208C106.552 162.384 106.12 160.272 106.12 157.872C106.12 153.36 107.656 149.76 110.728 147.072C113.896 144.384 117.736 143.04 122.248 143.04C128.2 143.04 132.664 145.248 135.64 149.664C138.616 153.984 140.104 160.032 140.104 167.808C140.104 177.024 137.56 184.8 132.472 191.136C127.384 197.472 119.848 202.176 109.864 205.248L104.536 192.864Z" fill="#283035"/>
</g>
</g>
<defs>
<filter id="filter0_d" x="104.536" y="95.376" width="37.368" height="113.872" filterUnits="userSpaceOnUse" color-interpolation-filters="sRGB">
<feFlood flood-opacity="0" result="BackgroundImageFix"/>
<feColorMatrix in="SourceAlpha" type="matrix" values="0 0 0 0 0 0 0 0 0 0 0 0 0 0 0 0 0 0 127 0"/>
<feOffset dx="1.8" dy="4"/>
<feColorMatrix type="matrix" values="0 0 0 0 0 0 0 0 0 0 0 0 0 0 0 0 0 0 0.25 0"/>
<feBlend mode="normal" in2="BackgroundImageFix" result="effect1_dropShadow"/>
<feBlend mode="normal" in="SourceGraphic" in2="effect1_dropShadow" result="shape"/>
</filter>
<clipPath id="clip0">
<rect width="244" height="278" fill="white"/>
</clipPath>
</defs>
</svg>
